X:248
T:Danza (CT 023)
R:Danza
C:Tradicional
S:Msica Tradicional Asturiana, (C) Tello & Tito. Asturies, 2001.
S:http://pagina.de/MusTradAst <telloytito@asturies.org>
N:Danza, transcrita en Cenera, ayuntamiento de Mieres.
N:Intervienen personas de ambos sexos.
A:Asturies
O:Cenera (Mieres)
Z:Cancioneru de Torner 023
M:9/8
L:1/8
Q:3/8=80
K:C
GG|A2G _B3 A2G|AA2- A3- AGG|
A2G _B3 (A2G)|AA2- A3- Add|
[M:6/8]
d2B c2A|
[M:9/8]
G3- G2 z2 GG|A2G _B3 (A2G)|AA2- A3- AGG|
A2G _B3 (A2G)|AA2- A3- Add|
[M:6/8]
d2B c2A|
[M:9/8]
G3- G2z||
W:Tengo un cuartu y dos ochavos (bis)
W:metidos nun rincn (bis)
W:cada vez que'l perru lladra
W:pienso que vien un lladrn.
W:
